svgs/sharp-solid/road.svg

<svg xmlns="http://www.w3.org/2000/svg" viewBox="0 0 576 512"><!--! Font Awesome Pro 6.6.0 by @fontawesome - https://fontawesome.com License - https://fontawesome.com/license (Commercial License) Copyright 2024 Fonticons, Inc. --><path d="M256 32L128 32 0 480l256 0 0-64 0-32 64 0 0 32 0 64 256 0L448 32 320 32l0 64 0 32-64 0 0-32 0-64zm64 192l0 64 0 32-64 0 0-32 0-64 0-32 64 0 0 32z"/></svg>

<svg xmlns="http://www.w3.org/2000/svg" viewBox="0 0 576 512"><!--! Font Awesome Pro 6.4.2 by @fontawesome - https://fontawesome.com License - https://fontawesome.com/license (Commercial License) Copyright 2023 Fonticons, Inc. --><path d="M256 32H128L0 480H256V416 384h64v32 64H576L448 32H320V96v32H256V96 32zm64 192v64 32H256V288 224 192h64v32z"/></svg>
